public/logos/PM.svg

<?xml version="1.0" encoding="UTF-8"?>
<svg xmlns="http://www.w3.org/2000/svg" xmlns:xlink="http://www.w3.org/1999/xlink" width="160.78pt" height="59pt" viewBox="0 0 160.78 59" version="1.1">
<defs>
<clipPath id="clip1">
  <path d="M 143 36 L 160.78125 36 L 160.78125 59 L 143 59 Z M 143 36 "/>
</clipPath>
</defs>
<g id="surface1">
<path style=" stroke:none;fill-rule:nonzero;fill:rgb(27.89917%,25.189209%,27.928162%);fill-opacity:1;" d="M 46.785156 41.570312 C 46.5625 41.242188 46.246094 40.972656 45.835938 40.761719 C 45.429688 40.542969 44.988281 40.4375 44.519531 40.4375 C 43.355469 40.4375 42.453125 40.785156 41.808594 41.476562 C 41.164062 42.167969 40.84375 43.074219 40.84375 44.191406 C 40.84375 45.308594 41.167969 46.214844 41.808594 46.90625 C 42.453125 47.597656 43.355469 47.945312 44.519531 47.945312 C 45.03125 47.945312 45.46875 47.832031 45.835938 47.609375 C 46.203125 47.386719 46.519531 47.117188 46.785156 46.8125 L 49.816406 50 C 49.101562 50.738281 48.261719 51.253906 47.289062 51.550781 C 46.320312 51.847656 45.398438 51.996094 44.519531 51.996094 C 43.375 51.996094 42.300781 51.8125 41.289062 51.445312 C 40.28125 51.078125 39.402344 50.550781 38.660156 49.867188 C 37.917969 49.183594 37.332031 48.363281 36.90625 47.40625 C 36.476562 46.445312 36.265625 45.375 36.265625 44.191406 C 36.265625 43.007812 36.476562 41.9375 36.90625 40.976562 C 37.332031 40.019531 37.917969 39.199219 38.660156 38.515625 C 39.40625 37.832031 40.28125 37.304688 41.289062 36.941406 C 42.300781 36.574219 43.375 36.390625 44.519531 36.390625 C 45.398438 36.390625 46.320312 36.535156 47.289062 36.835938 C 48.261719 37.128906 49.101562 37.648438 49.816406 38.382812 L 46.785156 41.570312 "/>
<path style=" stroke:none;fill-rule:nonzero;fill:rgb(27.89917%,25.189209%,27.928162%);fill-opacity:1;" d="M 59.671875 45.109375 C 59.324219 45.109375 58.886719 45.121094 58.367188 45.15625 C 57.84375 45.183594 57.34375 45.273438 56.863281 45.414062 C 56.382812 45.554688 55.972656 45.769531 55.636719 46.054688 C 55.300781 46.339844 55.132812 46.734375 55.132812 47.242188 C 55.132812 47.792969 55.367188 48.203125 55.835938 48.464844 C 56.304688 48.730469 56.796875 48.859375 57.308594 48.859375 C 57.757812 48.859375 58.191406 48.800781 58.613281 48.679688 C 59.03125 48.554688 59.40625 48.382812 59.730469 48.160156 C 60.058594 47.9375 60.320312 47.652344 60.515625 47.304688 C 60.707031 46.960938 60.804688 46.550781 60.804688 46.085938 L 60.804688 45.105469 L 59.671875 45.105469 Z M 60.804688 49.753906 L 60.742188 49.753906 C 60.234375 50.550781 59.554688 51.125 58.707031 51.472656 C 57.859375 51.820312 56.964844 51.996094 56.027344 51.996094 C 55.332031 51.996094 54.664062 51.898438 54.019531 51.703125 C 53.375 51.511719 52.808594 51.21875 52.320312 50.832031 C 51.828125 50.445312 51.441406 49.96875 51.15625 49.394531 C 50.871094 48.828125 50.726562 48.164062 50.726562 47.410156 C 50.726562 46.554688 50.886719 45.832031 51.203125 45.238281 C 51.519531 44.648438 51.949219 44.160156 52.488281 43.773438 C 53.03125 43.386719 53.648438 43.085938 54.34375 42.871094 C 55.035156 42.65625 55.757812 42.496094 56.503906 42.394531 C 57.246094 42.292969 57.992188 42.230469 58.738281 42.214844 C 59.484375 42.191406 60.171875 42.179688 60.804688 42.179688 C 60.804688 41.367188 60.515625 40.71875 59.933594 40.238281 C 59.351562 39.761719 58.664062 39.523438 57.867188 39.523438 C 57.109375 39.523438 56.421875 39.679688 55.800781 39.996094 C 55.175781 40.3125 54.621094 40.746094 54.132812 41.296875 L 51.679688 38.785156 C 52.539062 37.984375 53.539062 37.386719 54.679688 36.988281 C 55.824219 36.589844 57.007812 36.390625 58.234375 36.390625 C 59.582031 36.390625 60.6875 36.558594 61.554688 36.894531 C 62.421875 37.230469 63.117188 37.726562 63.640625 38.378906 C 64.160156 39.03125 64.523438 39.835938 64.726562 40.78125 C 64.929688 41.734375 65.03125 42.832031 65.03125 44.078125 L 65.03125 51.640625 L 60.804688 51.640625 L 60.804688 49.753906 "/>
<path style=" stroke:none;fill-rule:nonzero;fill:rgb(27.89917%,25.189209%,27.928162%);fill-opacity:1;" d="M 67.144531 36.742188 L 71.546875 36.742188 L 71.546875 38.78125 L 71.605469 38.78125 C 71.75 38.496094 71.953125 38.210938 72.21875 37.921875 C 72.484375 37.636719 72.800781 37.382812 73.171875 37.15625 C 73.539062 36.929688 73.957031 36.746094 74.425781 36.601562 C 74.898438 36.460938 75.40625 36.390625 75.960938 36.390625 C 77.125 36.390625 78.066406 36.566406 78.78125 36.925781 C 79.496094 37.28125 80.054688 37.777344 80.453125 38.410156 C 80.851562 39.042969 81.121094 39.789062 81.265625 40.644531 C 81.40625 41.503906 81.476562 42.433594 81.476562 43.433594 L 81.476562 51.640625 L 76.898438 51.640625 L 76.898438 44.355469 C 76.898438 43.925781 76.882812 43.484375 76.851562 43.023438 C 76.820312 42.566406 76.726562 42.144531 76.574219 41.753906 C 76.417969 41.367188 76.183594 41.050781 75.867188 40.804688 C 75.546875 40.5625 75.089844 40.4375 74.496094 40.4375 C 73.902344 40.4375 73.417969 40.542969 73.046875 40.761719 C 72.679688 40.972656 72.398438 41.261719 72.203125 41.617188 C 72.007812 41.972656 71.878906 42.378906 71.816406 42.824219 C 71.753906 43.273438 71.726562 43.742188 71.726562 44.234375 L 71.726562 51.640625 L 67.144531 51.640625 L 67.144531 36.742188 "/>
<path style=" stroke:none;fill-rule:nonzero;fill:rgb(27.89917%,25.189209%,27.928162%);fill-opacity:1;" d="M 92.160156 45.109375 C 91.8125 45.109375 91.378906 45.121094 90.855469 45.15625 C 90.335938 45.183594 89.832031 45.273438 89.351562 45.414062 C 88.871094 45.554688 88.464844 45.769531 88.125 46.054688 C 87.789062 46.339844 87.617188 46.734375 87.617188 47.242188 C 87.617188 47.792969 87.855469 48.203125 88.324219 48.464844 C 88.792969 48.730469 89.285156 48.859375 89.796875 48.859375 C 90.246094 48.859375 90.679688 48.800781 91.101562 48.679688 C 91.519531 48.554688 91.894531 48.382812 92.21875 48.160156 C 92.546875 47.9375 92.808594 47.652344 93.003906 47.304688 C 93.199219 46.960938 93.292969 46.550781 93.292969 46.085938 L 93.292969 45.105469 L 92.160156 45.105469 Z M 93.292969 49.753906 L 93.230469 49.753906 C 92.722656 50.550781 92.042969 51.125 91.195312 51.472656 C 90.347656 51.820312 89.453125 51.996094 88.515625 51.996094 C 87.820312 51.996094 87.152344 51.898438 86.507812 51.703125 C 85.863281 51.511719 85.296875 51.21875 84.808594 50.832031 C 84.316406 50.445312 83.929688 49.96875 83.644531 49.394531 C 83.359375 48.828125 83.214844 48.164062 83.214844 47.410156 C 83.214844 46.554688 83.371094 45.832031 83.691406 45.238281 C 84.007812 44.648438 84.433594 44.160156 84.976562 43.773438 C 85.519531 43.386719 86.136719 43.085938 86.832031 42.871094 C 87.523438 42.65625 88.246094 42.496094 88.988281 42.394531 C 89.734375 42.292969 90.480469 42.230469 91.226562 42.214844 C 91.972656 42.191406 92.660156 42.179688 93.292969 42.179688 C 93.292969 41.367188 93.003906 40.71875 92.421875 40.238281 C 91.839844 39.761719 91.152344 39.523438 90.355469 39.523438 C 89.597656 39.523438 88.910156 39.679688 88.289062 39.996094 C 87.664062 40.3125 87.109375 40.746094 86.617188 41.296875 L 84.167969 38.785156 C 85.027344 37.984375 86.027344 37.386719 87.167969 36.988281 C 88.3125 36.589844 89.496094 36.390625 90.722656 36.390625 C 92.070312 36.390625 93.175781 36.558594 94.042969 36.894531 C 94.910156 37.230469 95.605469 37.726562 96.128906 38.378906 C 96.648438 39.03125 97.011719 39.835938 97.214844 40.78125 C 97.417969 41.734375 97.523438 42.832031 97.523438 44.078125 L 97.523438 51.640625 L 93.292969 51.640625 L 93.292969 49.753906 "/>
<path style=" stroke:none;fill-rule:nonzero;fill:rgb(27.89917%,25.189209%,27.928162%);fill-opacity:1;" d="M 99.632812 36.742188 L 104.214844 36.742188 L 104.214844 39.136719 L 104.273438 39.148438 C 104.765625 38.230469 105.347656 37.539062 106.019531 37.078125 C 106.691406 36.617188 107.539062 36.390625 108.5625 36.390625 C 108.824219 36.390625 109.09375 36.398438 109.355469 36.417969 C 109.621094 36.4375 109.867188 36.476562 110.09375 36.535156 L 110.09375 40.738281 C 109.765625 40.636719 109.445312 40.5625 109.128906 40.511719 C 108.8125 40.464844 108.480469 40.4375 108.132812 40.4375 C 107.253906 40.4375 106.5625 40.558594 106.050781 40.804688 C 105.539062 41.050781 105.144531 41.394531 104.871094 41.832031 C 104.597656 42.269531 104.417969 42.792969 104.335938 43.40625 C 104.253906 44.019531 104.214844 44.695312 104.214844 45.425781 L 104.214844 51.640625 L 99.632812 51.640625 L 99.632812 36.742188 "/>
<path style=" stroke:none;fill-rule:nonzero;fill:rgb(27.89917%,25.189209%,27.928162%);fill-opacity:1;" d="M 120.664062 54.0625 C 120.359375 54.863281 120.0625 55.566406 119.777344 56.179688 C 119.492188 56.792969 119.128906 57.308594 118.691406 57.726562 C 118.253906 58.144531 117.695312 58.464844 117.019531 58.675781 C 116.347656 58.890625 115.460938 59 114.359375 59 C 113.175781 59 112.03125 58.816406 110.929688 58.449219 L 111.539062 54.675781 C 112.234375 54.976562 112.949219 55.128906 113.683594 55.128906 C 114.195312 55.128906 114.613281 55.070312 114.9375 54.957031 C 115.265625 54.847656 115.535156 54.683594 115.75 54.46875 C 115.964844 54.253906 116.144531 53.992188 116.285156 53.6875 C 116.429688 53.382812 116.582031 53.023438 116.746094 52.613281 L 117.082031 51.757812 L 110.5625 36.742188 L 115.519531 36.742188 L 119.347656 46.585938 L 119.410156 46.585938 L 122.6875 36.742188 L 127.402344 36.742188 L 120.664062 54.0625 "/>
<path style=" stroke:none;fill-rule:nonzero;fill:rgb(27.89917%,25.189209%,27.928162%);fill-opacity:1;" d="M 128.546875 40.40625 L 128.546875 34.109375 C 128.546875 33.296875 128.617188 32.527344 128.757812 31.800781 C 128.902344 31.078125 129.175781 30.441406 129.585938 29.886719 C 129.992188 29.335938 130.574219 28.902344 131.339844 28.585938 C 132.105469 28.269531 133.105469 28.113281 134.351562 28.113281 C 134.820312 28.113281 135.28125 28.132812 135.730469 28.175781 C 136.179688 28.214844 136.617188 28.285156 137.046875 28.390625 L 136.832031 32.289062 C 136.566406 32.1875 136.320312 32.113281 136.097656 32.0625 C 135.871094 32.011719 135.617188 31.984375 135.332031 31.984375 C 134.597656 31.984375 134.046875 32.144531 133.679688 32.457031 C 133.308594 32.773438 133.128906 33.417969 133.128906 34.394531 L 133.128906 36.742188 L 136.523438 36.742188 L 136.523438 40.40625 L 133.128906 40.40625 L 133.128906 51.640625 L 128.546875 51.640625 L 128.546875 40.40625 "/>
<path style=" stroke:none;fill-rule:nonzero;fill:rgb(27.89917%,25.189209%,27.928162%);fill-opacity:1;" d="M 138.339844 28.496094 L 142.917969 28.496094 L 142.917969 51.640625 L 138.339844 51.640625 L 138.339844 28.496094 "/>
<g clip-path="url(#clip1)" clip-rule="nonzero">
<path style=" stroke:none;fill-rule:nonzero;fill:rgb(27.89917%,25.189209%,27.928162%);fill-opacity:1;" d="M 154.046875 54.0625 C 153.738281 54.863281 153.441406 55.566406 153.15625 56.179688 C 152.871094 56.792969 152.507812 57.308594 152.070312 57.726562 C 151.632812 58.144531 151.074219 58.464844 150.402344 58.675781 C 149.726562 58.890625 148.839844 59 147.738281 59 C 146.554688 59 145.410156 58.816406 144.308594 58.449219 L 144.921875 54.675781 C 145.613281 54.976562 146.328125 55.128906 147.0625 55.128906 C 147.574219 55.128906 147.992188 55.070312 148.320312 54.957031 C 148.644531 54.847656 148.917969 54.683594 149.132812 54.46875 C 149.34375 54.253906 149.523438 53.992188 149.667969 53.6875 C 149.808594 53.382812 149.964844 53.023438 150.125 52.613281 L 150.464844 51.757812 L 143.941406 36.742188 L 148.902344 36.742188 L 152.730469 46.585938 L 152.789062 46.585938 L 156.066406 36.742188 L 160.78125 36.742188 L 154.046875 54.0625 "/>
</g>
<path style=" stroke:none;fill-rule:nonzero;fill:rgb(19.758606%,27.19574%,59.541321%);fill-opacity:1;" d="M 9.699219 0 C 15.050781 0 19.394531 4.34375 19.394531 9.699219 C 19.394531 15.050781 15.050781 19.394531 9.699219 19.394531 C 4.34375 19.394531 0 15.050781 0 9.699219 C 0 4.34375 4.34375 0 9.699219 0 "/>
<path style=" stroke:none;fill-rule:nonzero;fill:rgb(19.758606%,27.19574%,59.541321%);fill-opacity:1;" d="M 20.039062 19.394531 C 24.511719 19.394531 28.140625 23.019531 28.140625 27.496094 C 28.140625 31.972656 24.511719 35.597656 20.039062 35.597656 C 15.5625 35.597656 11.933594 31.972656 11.933594 27.496094 C 11.933594 23.019531 15.5625 19.394531 20.039062 19.394531 "/>
<path style=" stroke:none;fill-rule:nonzero;fill:rgb(19.758606%,27.19574%,59.541321%);fill-opacity:1;" d="M 28.671875 5.296875 C 32.558594 5.296875 35.710938 8.453125 35.710938 12.339844 C 35.710938 16.226562 32.558594 19.378906 28.671875 19.378906 C 24.78125 19.378906 21.628906 16.226562 21.628906 12.339844 C 21.628906 8.453125 24.78125 5.296875 28.671875 5.296875 "/>
<path style=" stroke:none;fill-rule:nonzero;fill:rgb(19.758606%,27.19574%,59.541321%);fill-opacity:1;" d="M 41.113281 12.886719 C 42.949219 12.886719 44.433594 14.371094 44.433594 16.207031 C 44.433594 18.039062 42.949219 19.527344 41.113281 19.527344 C 39.28125 19.527344 37.792969 18.039062 37.792969 16.207031 C 37.792969 14.371094 39.28125 12.886719 41.113281 12.886719 "/>
<path style=" stroke:none;fill-rule:nonzero;fill:rgb(19.758606%,27.19574%,59.541321%);fill-opacity:1;" d="M 35.65625 19.269531 C 38.097656 19.269531 40.074219 21.246094 40.074219 23.683594 C 40.074219 26.125 38.097656 28.101562 35.65625 28.101562 C 33.21875 28.101562 31.238281 26.125 31.238281 23.683594 C 31.238281 21.246094 33.21875 19.269531 35.65625 19.269531 "/>
<path style=" stroke:none;fill-rule:nonzero;fill:rgb(19.758606%,27.19574%,59.541321%);fill-opacity:1;" d="M 45.398438 19.34375 C 46.628906 19.34375 47.621094 20.339844 47.621094 21.566406 C 47.621094 22.796875 46.628906 23.792969 45.398438 23.792969 C 44.167969 23.792969 43.171875 22.796875 43.171875 21.566406 C 43.171875 20.339844 44.167969 19.34375 45.398438 19.34375 "/>
<path style=" stroke:none;fill-rule:nonzero;fill:rgb(19.758606%,27.19574%,59.541321%);fill-opacity:1;" d="M 49.160156 16.023438 C 50.097656 16.023438 50.855469 16.78125 50.855469 17.714844 C 50.855469 18.652344 50.097656 19.410156 49.160156 19.410156 C 48.226562 19.410156 47.46875 18.652344 47.46875 17.714844 C 47.46875 16.78125 48.226562 16.023438 49.160156 16.023438 "/>
</g>
</svg>

<svg xmlns="http://www.w3.org/2000/svg" width="214.373" height="59pt" viewBox="0 0 160.78 59"><defs><clipPath id="a"><path d="M143 36h17.781v23H143Zm0 0"/></clipPath></defs><path d="M46.785 41.57q-.333-.492-.95-.808a2.74 2.74 0 0 0-1.315-.325q-1.746.001-2.711 1.04-.966 1.038-.965 2.714.002 1.678.965 2.715.965 1.039 2.71 1.04.767-.001 1.317-.337a4 4 0 0 0 .95-.797L49.815 50a5.83 5.83 0 0 1-2.527 1.55q-1.452.447-2.77.446a9.4 9.4 0 0 1-3.23-.55 7.8 7.8 0 0 1-2.629-1.579 7.4 7.4 0 0 1-1.754-2.46c-.43-.962-.64-2.032-.64-3.216 0-1.183.21-2.254.64-3.214a7.4 7.4 0 0 1 1.754-2.461 7.7 7.7 0 0 1 2.63-1.575 9.4 9.4 0 0 1 3.23-.55c.878 0 1.8.144 2.77.445a5.8 5.8 0 0 1 2.526 1.547zM59.672 45.11c-.348 0-.785.011-1.305.046a6.6 6.6 0 0 0-1.504.258q-.721.212-1.226.64-.504.427-.504 1.188 0 .828.703 1.223.704.396 1.473.394.672.002 1.304-.18a4 4 0 0 0 1.117-.519q.493-.334.786-.855c.191-.344.289-.754.289-1.22v-.98h-1.133Zm1.133 4.644h-.063a4.3 4.3 0 0 1-2.035 1.719 7 7 0 0 1-2.68.523 6.9 6.9 0 0 1-2.007-.293 5 5 0 0 1-1.7-.871 4.14 4.14 0 0 1-1.164-1.437q-.429-.852-.43-1.985 0-1.282.477-2.172a4.26 4.26 0 0 1 1.285-1.465 6.5 6.5 0 0 1 1.856-.902 13.4 13.4 0 0 1 2.16-.476 20 20 0 0 1 2.234-.18 66 66 0 0 1 2.067-.035q0-1.22-.871-1.942-.872-.715-2.067-.715-1.136 0-2.066.473-.937.475-1.668 1.3l-2.453-2.51q1.29-1.202 3-1.798a10.7 10.7 0 0 1 3.554-.597q2.02 0 3.32.504 1.302.504 2.087 1.484c.52.652.882 1.457 1.086 2.402q.304 1.429.304 3.297v7.563h-4.226zM67.145 36.742h4.402v2.04h.058q.216-.428.614-.86.397-.427.953-.766.55-.338 1.254-.554c.472-.141.98-.211 1.535-.211 1.164 0 2.105.175 2.82.535q1.074.533 1.672 1.484t.813 2.235q.21 1.289.21 2.789v8.207h-4.578v-7.286c0-.43-.015-.87-.046-1.332a4.3 4.3 0 0 0-.278-1.27 2.24 2.24 0 0 0-.707-.948c-.32-.242-.777-.367-1.37-.367-.595 0-1.079.105-1.45.324-.367.21-.649.5-.844.855a3.5 3.5 0 0 0-.387 1.207q-.091.673-.09 1.41v7.407h-4.581zM92.16 45.11c-.347 0-.781.011-1.305.046a6.6 6.6 0 0 0-1.503.258q-.719.212-1.227.64c-.336.286-.508.68-.508 1.188q.002.828.707 1.223.704.396 1.473.394.674.002 1.305-.18a4 4 0 0 0 1.117-.519q.492-.334.785-.855c.195-.344.289-.754.289-1.22v-.98H92.16Zm1.133 4.644h-.063a4.3 4.3 0 0 1-2.035 1.719 7 7 0 0 1-2.68.523 6.9 6.9 0 0 1-2.007-.293 5 5 0 0 1-1.7-.871 4.14 4.14 0 0 1-1.163-1.437q-.43-.852-.43-1.985-.002-1.282.476-2.172a4.2 4.2 0 0 1 1.286-1.465 6.5 6.5 0 0 1 1.855-.902 13.4 13.4 0 0 1 2.156-.476 20 20 0 0 1 2.239-.18 66 66 0 0 1 2.066-.035q0-1.22-.871-1.942-.872-.715-2.067-.715-1.135 0-2.066.473a5.7 5.7 0 0 0-1.672 1.3l-2.449-2.51q1.29-1.202 3-1.798a10.7 10.7 0 0 1 3.555-.597q2.02 0 3.32.504t2.086 1.484c.52.652.883 1.457 1.086 2.402q.306 1.429.308 3.297v7.563h-4.23zM99.633 36.742h4.582v2.395l.058.011q.74-1.378 1.747-2.07 1.007-.688 2.543-.687c.261 0 .53.007.792.027q.399.03.739.117v4.203a7 7 0 0 0-.965-.226 7 7 0 0 0-.996-.075c-.88 0-1.57.122-2.082.368q-.768.37-1.18 1.027-.41.656-.535 1.574c-.082.614-.121 1.29-.121 2.02v6.215h-4.582zM120.664 54.063q-.459 1.198-.887 2.117a5.1 5.1 0 0 1-1.086 1.547c-.437.418-.996.738-1.671.949q-1.009.323-2.66.324a10.8 10.8 0 0 1-3.43-.55l.61-3.774q1.042.452 2.144.453.767-.001 1.254-.172a2.04 2.04 0 0 0 .812-.488q.324-.323.535-.782.216-.458.461-1.074l.336-.855-6.52-15.016h4.958l3.828 9.844h.062l3.278-9.844h4.714zM128.547 40.406V34.11q0-1.219.21-2.308.216-1.084.829-1.914.607-.827 1.754-1.301c.765-.316 1.765-.473 3.012-.473.468 0 .93.02 1.378.063q.673.058 1.317.215l-.215 3.898a5.5 5.5 0 0 0-.734-.227 3.5 3.5 0 0 0-.766-.078q-1.101.002-1.652.473c-.371.316-.551.961-.551 1.938v2.347h3.394v3.664h-3.394v11.235h-4.582zM138.34 28.496h4.578v23.145h-4.578z" style="stroke:none;fill-rule:nonzero;fill:#474047;fill-opacity:1"/><g clip-path="url(#a)"><path d="M154.047 54.063q-.464 1.198-.89 2.117a5.1 5.1 0 0 1-1.087 1.547c-.437.418-.996.738-1.668.949q-1.012.323-2.664.324a10.8 10.8 0 0 1-3.43-.55l.614-3.774a5.3 5.3 0 0 0 2.14.453q.767-.001 1.258-.172.489-.165.813-.488.316-.323.535-.782c.14-.304.297-.664.457-1.074l.34-.855-6.524-15.016h4.961l3.828 9.844h.06l3.276-9.844h4.715z" style="stroke:none;fill-rule:nonzero;fill:#474047;fill-opacity:1"/></g><path d="M9.7 0c5.35 0 9.695 4.344 9.695 9.7 0 5.35-4.344 9.695-9.696 9.695C4.344 19.395 0 15.05 0 9.699 0 4.344 4.344 0 9.7 0M20.04 19.395a8.1 8.1 0 0 1 8.1 8.101 8.1 8.1 0 0 1-8.1 8.102 8.102 8.102 0 1 1 0-16.203M28.672 5.297a7.043 7.043 0 0 1 7.039 7.043 7.041 7.041 0 1 1-7.04-7.043M41.113 12.887a3.32 3.32 0 1 1 0 6.641 3.32 3.32 0 0 1 0-6.641M35.656 19.27a4.415 4.415 0 1 1 0 8.832 4.42 4.42 0 0 1-4.418-4.418 4.42 4.42 0 0 1 4.418-4.414M45.398 19.344c1.23 0 2.223.996 2.223 2.222a2.226 2.226 0 1 1-2.223-2.223M49.16 16.023a1.693 1.693 0 1 1 .005 3.386 1.693 1.693 0 0 1-.005-3.386" style="stroke:none;fill-rule:nonzero;fill:#324598;fill-opacity:1"/></svg>
